src/pos-icons/numeric-2-box-multiple-outline.svg

<svg height="24" viewBox="0 0 24 24" width="24" xmlns="http://www.w3.org/2000/svg"><path d="m17 13h-4v-2h2a2 2 0 0 0 2-2v-2c0-1.11-.9-2-2-2h-4v2h4v2h-2a2 2 0 0 0 -2 2v4h6m4 2h-14v-14h14m0-2h-14a2 2 0 0 0 -2 2v14a2 2 0 0 0 2 2h14a2 2 0 0 0 2-2v-14a2 2 0 0 0 -2-2m-18 4h-2v16a2 2 0 0 0 2 2h16v-2h-16z"/></svg>

<?xml version="1.0" encoding="UTF-8"?><!DOCTYPE svg PUBLIC "-//W3C//DTD SVG 1.1//EN" "http://www.w3.org/Graphics/SVG/1.1/DTD/svg11.dtd"><svg xmlns="http://www.w3.org/2000/svg" xmlns:xlink="http://www.w3.org/1999/xlink" version="1.1" id="mdi-numeric-2-box-multiple-outline" width="24" height="24" viewBox="0 0 24 24"><path d="M17,13H13V11H15A2,2 0 0,0 17,9V7C17,5.89 16.1,5 15,5H11V7H15V9H13A2,2 0 0,0 11,11V15H17M21,17H7V3H21M21,1H7A2,2 0 0,0 5,3V17A2,2 0 0,0 7,19H21A2,2 0 0,0 23,17V3A2,2 0 0,0 21,1M3,5H1V21A2,2 0 0,0 3,23H19V21H3V5Z" /></svg>
